images/Chk1N66.svg

<?xml version="1.0" encoding="UTF-8"?>
<svg xmlns="http://www.w3.org/2000/svg" xmlns:xlink="http://www.w3.org/1999/xlink" width="300pt" height="300pt" viewBox="0 0 300 300" version="1.1">
<defs>
<g>
<symbol overflow="visible" id="glyph0-0">
<path style="stroke:none;" d="M 0.453125 1.59375 L 0.453125 -6.34375 L 4.953125 -6.34375 L 4.953125 1.59375 Z M 0.953125 1.09375 L 4.453125 1.09375 L 4.453125 -5.84375 L 0.953125 -5.84375 Z M 0.953125 1.09375 "/>
</symbol>
<symbol overflow="visible" id="glyph0-1">
<path style="stroke:none;" d="M 0.890625 -6.5625 L 1.765625 -6.5625 L 1.765625 -3.875 L 5 -3.875 L 5 -6.5625 L 5.890625 -6.5625 L 5.890625 0 L 5 0 L 5 -3.125 L 1.765625 -3.125 L 1.765625 0 L 0.890625 0 Z M 0.890625 -6.5625 "/>
</symbol>
<symbol overflow="visible" id="glyph0-2">
<path style="stroke:none;" d="M 3.546875 -5.953125 C 2.898438 -5.953125 2.382812 -5.710938 2 -5.234375 C 1.625 -4.753906 1.4375 -4.101562 1.4375 -3.28125 C 1.4375 -2.445312 1.625 -1.789062 2 -1.3125 C 2.382812 -0.832031 2.898438 -0.59375 3.546875 -0.59375 C 4.191406 -0.59375 4.703125 -0.832031 5.078125 -1.3125 C 5.453125 -1.789062 5.640625 -2.445312 5.640625 -3.28125 C 5.640625 -4.101562 5.453125 -4.753906 5.078125 -5.234375 C 4.703125 -5.710938 4.191406 -5.953125 3.546875 -5.953125 Z M 3.546875 -6.6875 C 4.460938 -6.6875 5.195312 -6.375 5.75 -5.75 C 6.300781 -5.132812 6.578125 -4.3125 6.578125 -3.28125 C 6.578125 -2.238281 6.300781 -1.410156 5.75 -0.796875 C 5.195312 -0.179688 4.460938 0.125 3.546875 0.125 C 2.617188 0.125 1.878906 -0.179688 1.328125 -0.796875 C 0.773438 -1.410156 0.5 -2.238281 0.5 -3.28125 C 0.5 -4.3125 0.773438 -5.132812 1.328125 -5.75 C 1.878906 -6.375 2.617188 -6.6875 3.546875 -6.6875 Z M 3.546875 -6.6875 "/>
</symbol>
<symbol overflow="visible" id="glyph0-3">
<path style="stroke:none;" d="M 0.890625 -6.5625 L 2.078125 -6.5625 L 4.984375 -1.078125 L 4.984375 -6.5625 L 5.84375 -6.5625 L 5.84375 0 L 4.65625 0 L 1.75 -5.484375 L 1.75 0 L 0.890625 0 Z M 0.890625 -6.5625 "/>
</symbol>
</g>
</defs>
<g id="surface209">
<rect x="0" y="0" width="300" height="300" style="fill:rgb(100%,100%,100%);fill-opacity:1;stroke:none;"/>
<path style="fill:none;stroke-width:1.2;stroke-linecap:butt;stroke-linejoin:miter;stroke:rgb(100%,0%,0%);stroke-opacity:1;stroke-miterlimit:10;" d="M 35.25 173.015625 L 43.429688 168.757812 "/>
<path style="fill:none;stroke-width:1.2;stroke-linecap:butt;stroke-linejoin:miter;stroke:rgb(0%,0%,0%);stroke-opacity:1;stroke-miterlimit:10;" d="M 43.429688 168.757812 L 51.609375 164.496094 "/>
<path style=" stroke:none;fill-rule:nonzero;fill:rgb(100%,100%,100%);fill-opacity:1;" d="M 20.25 167.515625 L 35.25 167.515625 L 35.25 178.515625 L 20.25 178.515625 Z M 20.25 167.515625 "/>
<g style="fill:rgb(100%,0%,0%);fill-opacity:1;">
  <use xlink:href="#glyph0-1" x="20.25" y="176.178711"/>
  <use xlink:href="#glyph0-2" x="27.264648" y="176.178711"/>
</g>
<path style="fill:none;stroke-width:1.2;stroke-linecap:butt;stroke-linejoin:miter;stroke:rgb(0%,0%,0%);stroke-opacity:1;stroke-miterlimit:10;" d="M 51.609375 164.496094 L 52.410156 146.070312 "/>
<path style="fill:none;stroke-width:1.2;stroke-linecap:butt;stroke-linejoin:miter;stroke:rgb(0%,0%,0%);stroke-opacity:1;stroke-miterlimit:10;" d="M 67.167969 174.402344 L 51.609375 164.496094 "/>
<path style="fill:none;stroke-width:1.2;stroke-linecap:butt;stroke-linejoin:miter;stroke:rgb(0%,0%,0%);stroke-opacity:1;stroke-miterlimit:10;" d="M 52.410156 146.070312 L 68.765625 137.550781 "/>
<path style="fill:none;stroke-width:1.2;stroke-linecap:butt;stroke-linejoin:miter;stroke:rgb(0%,0%,0%);stroke-opacity:1;stroke-miterlimit:10;" d="M 68.765625 137.550781 L 84.324219 147.457031 "/>
<path style="fill:none;stroke-width:1.2;stroke-linecap:butt;stroke-linejoin:miter;stroke:rgb(0%,0%,0%);stroke-opacity:1;stroke-miterlimit:10;" d="M 84.324219 147.457031 L 92.503906 143.195312 "/>
<path style="fill:none;stroke-width:1.2;stroke-linecap:butt;stroke-linejoin:miter;stroke:rgb(0%,0%,100%);stroke-opacity:1;stroke-miterlimit:10;" d="M 92.503906 143.195312 L 100.683594 138.9375 "/>
<path style="fill:none;stroke-width:1.2;stroke-linecap:butt;stroke-linejoin:miter;stroke:rgb(0%,0%,0%);stroke-opacity:1;stroke-miterlimit:10;" d="M 84.324219 147.457031 L 83.523438 165.882812 "/>
<path style="fill:none;stroke-width:1.2;stroke-linecap:butt;stroke-linejoin:miter;stroke:rgb(0%,0%,100%);stroke-opacity:1;stroke-miterlimit:10;" d="M 100.683594 138.9375 L 108.460938 143.890625 "/>
<path style="fill:none;stroke-width:1.2;stroke-linecap:butt;stroke-linejoin:miter;stroke:rgb(0%,0%,0%);stroke-opacity:1;stroke-miterlimit:10;" d="M 108.460938 143.890625 L 116.242188 148.84375 "/>
<path style=" stroke:none;fill-rule:nonzero;fill:rgb(100%,100%,100%);fill-opacity:1;" d="M 93.683594 133.4375 L 107.683594 133.4375 L 107.683594 144.4375 L 93.683594 144.4375 Z M 93.683594 133.4375 "/>
<g style="fill:rgb(0%,0%,100%);fill-opacity:1;">
  <use xlink:href="#glyph0-3" x="93.683594" y="142.100586"/>
  <use xlink:href="#glyph0-1" x="100.661133" y="142.100586"/>
</g>
<path style="fill:none;stroke-width:1.2;stroke-linecap:butt;stroke-linejoin:miter;stroke:rgb(0%,0%,0%);stroke-opacity:1;stroke-miterlimit:10;" d="M 116.242188 148.84375 L 132.601562 140.324219 "/>
<path style="fill:none;stroke-width:1.2;stroke-linecap:butt;stroke-linejoin:miter;stroke:rgb(0%,0%,0%);stroke-opacity:1;stroke-miterlimit:10;" d="M 132.601562 140.324219 L 148.15625 150.230469 "/>
<path style="fill:none;stroke-width:1.2;stroke-linecap:butt;stroke-linejoin:miter;stroke:rgb(0%,0%,0%);stroke-opacity:1;stroke-miterlimit:10;" d="M 136.488281 137.652344 L 148.933594 145.578125 "/>
<path style="fill:none;stroke-width:1.2;stroke-linecap:butt;stroke-linejoin:miter;stroke:rgb(0%,0%,0%);stroke-opacity:1;stroke-miterlimit:10;" d="M 133.402344 121.894531 L 132.601562 140.324219 "/>
<path style="fill:none;stroke-width:1.2;stroke-linecap:butt;stroke-linejoin:miter;stroke:rgb(0%,0%,0%);stroke-opacity:1;stroke-miterlimit:10;" d="M 148.15625 150.230469 L 164.515625 141.710938 "/>
<path style="fill:none;stroke-width:1.2;stroke-linecap:butt;stroke-linejoin:miter;stroke:rgb(0%,0%,0%);stroke-opacity:1;stroke-miterlimit:10;" d="M 164.515625 141.710938 L 181.792969 148.164062 "/>
<path style="fill:none;stroke-width:1.2;stroke-linecap:butt;stroke-linejoin:miter;stroke:rgb(0%,0%,0%);stroke-opacity:1;stroke-miterlimit:10;" d="M 164.515625 141.710938 L 165.316406 123.28125 "/>
<path style="fill:none;stroke-width:1.2;stroke-linecap:butt;stroke-linejoin:miter;stroke:rgb(0%,0%,0%);stroke-opacity:1;stroke-miterlimit:10;" d="M 168.933594 140.054688 L 169.574219 125.3125 "/>
<path style="fill:none;stroke-width:1.2;stroke-linecap:butt;stroke-linejoin:miter;stroke:rgb(0%,0%,0%);stroke-opacity:1;stroke-miterlimit:10;" d="M 181.792969 148.164062 L 193.273438 133.726562 "/>
<path style="fill:none;stroke-width:1.2;stroke-linecap:butt;stroke-linejoin:miter;stroke:rgb(0%,0%,0%);stroke-opacity:1;stroke-miterlimit:10;" d="M 193.273438 133.726562 L 183.089844 118.351562 "/>
<path style="fill:none;stroke-width:1.2;stroke-linecap:butt;stroke-linejoin:miter;stroke:rgb(0%,0%,0%);stroke-opacity:1;stroke-miterlimit:10;" d="M 211.046875 128.796875 L 193.273438 133.726562 "/>
<path style="fill:none;stroke-width:1.2;stroke-linecap:butt;stroke-linejoin:miter;stroke:rgb(0%,0%,0%);stroke-opacity:1;stroke-miterlimit:10;" d="M 208.105469 125.105469 L 193.890625 129.054688 "/>
<path style="fill:none;stroke-width:1.2;stroke-linecap:butt;stroke-linejoin:miter;stroke:rgb(0%,0%,0%);stroke-opacity:1;stroke-miterlimit:10;" d="M 183.089844 118.351562 L 188.828125 111.132812 "/>
<path style="fill:none;stroke-width:1.2;stroke-linecap:butt;stroke-linejoin:miter;stroke:rgb(0%,0%,100%);stroke-opacity:1;stroke-miterlimit:10;" d="M 188.828125 111.132812 L 194.566406 103.914062 "/>
<path style="fill:none;stroke-width:1.2;stroke-linecap:butt;stroke-linejoin:miter;stroke:rgb(0%,0%,0%);stroke-opacity:1;stroke-miterlimit:10;" d="M 187.632812 119.605469 L 192.226562 113.832031 "/>
<path style="fill:none;stroke-width:1.2;stroke-linecap:butt;stroke-linejoin:miter;stroke:rgb(0%,0%,100%);stroke-opacity:1;stroke-miterlimit:10;" d="M 192.226562 113.832031 L 196.816406 108.058594 "/>
<path style="fill:none;stroke-width:1.2;stroke-linecap:butt;stroke-linejoin:miter;stroke:rgb(0%,0%,0%);stroke-opacity:1;stroke-miterlimit:10;" d="M 165.316406 123.28125 L 183.089844 118.351562 "/>
<path style="fill:none;stroke-width:1.2;stroke-linecap:butt;stroke-linejoin:miter;stroke:rgb(0%,0%,100%);stroke-opacity:1;stroke-miterlimit:10;" d="M 194.566406 103.914062 L 211.847656 110.367188 "/>
<path style=" stroke:none;fill-rule:nonzero;fill:rgb(100%,100%,100%);fill-opacity:1;" d="M 191.566406 98.414062 L 198.566406 98.414062 L 198.566406 109.414062 L 191.566406 109.414062 Z M 191.566406 98.414062 "/>
<g style="fill:rgb(0%,0%,100%);fill-opacity:1;">
  <use xlink:href="#glyph0-3" x="191.566406" y="107.077148"/>
</g>
<path style="fill:none;stroke-width:1.2;stroke-linecap:butt;stroke-linejoin:miter;stroke:rgb(0%,0%,100%);stroke-opacity:1;stroke-miterlimit:10;" d="M 211.847656 110.367188 L 211.445312 119.582031 "/>
<path style="fill:none;stroke-width:1.2;stroke-linecap:butt;stroke-linejoin:miter;stroke:rgb(0%,0%,0%);stroke-opacity:1;stroke-miterlimit:10;" d="M 211.445312 119.582031 L 211.046875 128.796875 "/>
<path style=" stroke:none;fill-rule:nonzero;fill:rgb(100%,100%,100%);fill-opacity:1;" d="M 204.847656 104.867188 L 218.847656 104.867188 L 218.847656 115.867188 L 204.847656 115.867188 Z M 204.847656 104.867188 "/>
<g style="fill:rgb(0%,0%,100%);fill-opacity:1;">
  <use xlink:href="#glyph0-3" x="204.847656" y="113.530273"/>
  <use xlink:href="#glyph0-1" x="211.825195" y="113.530273"/>
</g>
<path style="fill:none;stroke-width:1.2;stroke-linecap:butt;stroke-linejoin:miter;stroke:rgb(0%,0%,0%);stroke-opacity:1;stroke-miterlimit:10;" d="M 211.046875 128.796875 L 225.480469 140.273438 "/>
<path style="fill:none;stroke-width:1.2;stroke-linecap:butt;stroke-linejoin:miter;stroke:rgb(0%,0%,0%);stroke-opacity:1;stroke-miterlimit:10;" d="M 225.480469 140.273438 L 243.253906 135.339844 "/>
<path style="fill:none;stroke-width:1.2;stroke-linecap:butt;stroke-linejoin:miter;stroke:rgb(0%,0%,0%);stroke-opacity:1;stroke-miterlimit:10;" d="M 228.421875 143.960938 L 242.636719 140.015625 "/>
<path style="fill:none;stroke-width:1.2;stroke-linecap:butt;stroke-linejoin:miter;stroke:rgb(100%,0%,0%);stroke-opacity:1;stroke-miterlimit:10;" d="M 224.683594 158.699219 L 225.082031 149.488281 "/>
<path style="fill:none;stroke-width:1.2;stroke-linecap:butt;stroke-linejoin:miter;stroke:rgb(0%,0%,0%);stroke-opacity:1;stroke-miterlimit:10;" d="M 225.082031 149.488281 L 225.480469 140.273438 "/>
<path style="fill:none;stroke-width:1.2;stroke-linecap:butt;stroke-linejoin:miter;stroke:rgb(0%,0%,0%);stroke-opacity:1;stroke-miterlimit:10;" d="M 243.253906 135.339844 L 253.4375 150.71875 "/>
<path style="fill:none;stroke-width:1.2;stroke-linecap:butt;stroke-linejoin:miter;stroke:rgb(0%,0%,0%);stroke-opacity:1;stroke-miterlimit:10;" d="M 253.4375 150.71875 L 241.960938 165.15625 "/>
<path style="fill:none;stroke-width:1.2;stroke-linecap:butt;stroke-linejoin:miter;stroke:rgb(0%,0%,0%);stroke-opacity:1;stroke-miterlimit:10;" d="M 248.894531 149.460938 L 239.710938 161.011719 "/>
<path style="fill:none;stroke-width:1.2;stroke-linecap:butt;stroke-linejoin:miter;stroke:rgb(0%,0%,0%);stroke-opacity:1;stroke-miterlimit:10;" d="M 241.960938 165.15625 L 246.890625 182.929688 "/>
<path style="fill:none;stroke-width:1.2;stroke-linecap:butt;stroke-linejoin:miter;stroke:rgb(0%,0%,0%);stroke-opacity:1;stroke-miterlimit:10;" d="M 241.960938 165.15625 L 233.320312 161.929688 "/>
<path style="fill:none;stroke-width:1.2;stroke-linecap:butt;stroke-linejoin:miter;stroke:rgb(100%,0%,0%);stroke-opacity:1;stroke-miterlimit:10;" d="M 233.320312 161.929688 L 224.683594 158.699219 "/>
<path style="fill:none;stroke-width:1.2;stroke-linecap:butt;stroke-linejoin:miter;stroke:rgb(0%,0%,0%);stroke-opacity:1;stroke-miterlimit:10;" d="M 246.890625 182.929688 L 240.429688 189.507812 "/>
<path style="fill:none;stroke-width:1.2;stroke-linecap:butt;stroke-linejoin:miter;stroke:rgb(100%,0%,0%);stroke-opacity:1;stroke-miterlimit:10;" d="M 240.429688 189.507812 L 233.96875 196.085938 "/>
<path style="fill:none;stroke-width:1.2;stroke-linecap:butt;stroke-linejoin:miter;stroke:rgb(0%,0%,0%);stroke-opacity:1;stroke-miterlimit:10;" d="M 246.347656 185.03125 L 255.277344 187.335938 "/>
<path style="fill:none;stroke-width:1.2;stroke-linecap:butt;stroke-linejoin:miter;stroke:rgb(100%,0%,0%);stroke-opacity:1;stroke-miterlimit:10;" d="M 255.277344 187.335938 L 264.207031 189.644531 "/>
<path style="fill:none;stroke-width:1.2;stroke-linecap:butt;stroke-linejoin:miter;stroke:rgb(0%,0%,0%);stroke-opacity:1;stroke-miterlimit:10;" d="M 247.433594 180.828125 L 256.363281 183.136719 "/>
<path style="fill:none;stroke-width:1.2;stroke-linecap:butt;stroke-linejoin:miter;stroke:rgb(100%,0%,0%);stroke-opacity:1;stroke-miterlimit:10;" d="M 256.363281 183.136719 L 265.292969 185.441406 "/>
<path style=" stroke:none;fill-rule:nonzero;fill:rgb(100%,100%,100%);fill-opacity:1;" d="M 218.96875 190.585938 L 233.96875 190.585938 L 233.96875 201.585938 L 218.96875 201.585938 Z M 218.96875 190.585938 "/>
<g style="fill:rgb(100%,0%,0%);fill-opacity:1;">
  <use xlink:href="#glyph0-1" x="218.96875" y="199.249023"/>
  <use xlink:href="#glyph0-2" x="225.983398" y="199.249023"/>
</g>
<path style=" stroke:none;fill-rule:nonzero;fill:rgb(100%,100%,100%);fill-opacity:1;" d="M 260.75 182.042969 L 268.75 182.042969 L 268.75 193.042969 L 260.75 193.042969 Z M 260.75 182.042969 "/>
<g style="fill:rgb(100%,0%,0%);fill-opacity:1;">
  <use xlink:href="#glyph0-2" x="260.75" y="190.706055"/>
</g>
<path style=" stroke:none;fill-rule:nonzero;fill:rgb(100%,100%,100%);fill-opacity:1;" d="M 220.683594 153.199219 L 228.683594 153.199219 L 228.683594 164.199219 L 220.683594 164.199219 Z M 220.683594 153.199219 "/>
<g style="fill:rgb(100%,0%,0%);fill-opacity:1;">
  <use xlink:href="#glyph0-2" x="220.683594" y="161.862305"/>
</g>
<path style="fill:none;stroke-width:1.2;stroke-linecap:butt;stroke-linejoin:miter;stroke:rgb(0%,0%,0%);stroke-opacity:1;stroke-miterlimit:10;" d="M 165.316406 123.28125 L 149.757812 113.375 "/>
<path style="fill:none;stroke-width:1.2;stroke-linecap:butt;stroke-linejoin:miter;stroke:rgb(0%,0%,0%);stroke-opacity:1;stroke-miterlimit:10;" d="M 149.757812 113.375 L 133.402344 121.894531 "/>
<path style="fill:none;stroke-width:1.2;stroke-linecap:butt;stroke-linejoin:miter;stroke:rgb(0%,0%,0%);stroke-opacity:1;stroke-miterlimit:10;" d="M 150.128906 118.078125 L 137.042969 124.894531 "/>
<path style="fill:none;stroke-width:1.2;stroke-linecap:butt;stroke-linejoin:miter;stroke:rgb(0%,0%,0%);stroke-opacity:1;stroke-miterlimit:10;" d="M 83.523438 165.882812 L 67.167969 174.402344 "/>
</g>
</svg>

<svg xmlns="http://www.w3.org/2000/svg" xmlns:xlink="http://www.w3.org/1999/xlink" width="300pt" height="300pt" viewBox="0 0 300 300"><defs><symbol overflow="visible"><path d="M.453 1.594v-7.938h4.5v7.938zm.5-.5h3.5v-6.938h-3.5zm0 0"/></symbol><symbol overflow="visible" id="a"><path d="M.89-6.563h.876v2.688H5v-2.688h.89V0H5v-3.125H1.766V0H.89zm0 0"/></symbol><symbol overflow="visible" id="b"><path d="M3.547-5.953c-.65 0-1.164.242-1.547.72-.375.48-.563 1.13-.563 1.952 0 .835.188 1.49.563 1.967.383.48.898.72 1.547.72.644 0 1.156-.24 1.53-.72.376-.476.564-1.132.564-1.968 0-.822-.187-1.474-.562-1.954-.375-.477-.887-.72-1.53-.72zm0-.734c.914 0 1.648.312 2.203.937.55.617.828 1.438.828 2.47 0 1.042-.277 1.87-.828 2.483-.555.617-1.29.922-2.203.922-.93 0-1.668-.305-2.22-.922C.774-1.41.5-2.237.5-3.28c0-1.033.273-1.853.828-2.47.55-.625 1.29-.938 2.22-.938zm0 0"/></symbol><symbol overflow="visible" id="c"><path d="M.89-6.563H2.08l2.906 5.485v-5.484h.86V0H4.656L1.75-5.484V0H.89zm0 0"/></symbol></defs><g><path fill="#fff" d="M0 0h300v300H0z"/><path d="M35.25 173.016l8.18-4.258" stroke-width="1.2" stroke="#f00" stroke-miterlimit="10" fill="none"/><path d="M43.43 168.758l8.18-4.262" stroke-width="1.2" stroke="#000" stroke-miterlimit="10" fill="none"/><path d="M20.25 167.516h15v11h-15zm0 0" fill="#fff"/><g fill="#f00"><use xlink:href="#a" x="20.25" y="176.179"/><use xlink:href="#b" x="27.265" y="176.179"/></g><path d="M51.61 164.496l.8-18.426M67.168 174.402l-15.56-9.906M52.41 146.07l16.356-8.52M68.766 137.55l15.558 9.907M84.324 147.457l8.18-4.262" stroke-width="1.2" stroke="#000" stroke-miterlimit="10" fill="none"/><path d="M92.504 143.195l8.18-4.257" stroke-width="1.2" stroke="#00f" stroke-miterlimit="10" fill="none"/><path d="M84.324 147.457l-.8 18.426" stroke-width="1.2" stroke="#000" stroke-miterlimit="10" fill="none"/><path d="M100.684 138.938l7.777 4.953" stroke-width="1.2" stroke="#00f" stroke-miterlimit="10" fill="none"/><path d="M108.46 143.89l7.782 4.954" stroke-width="1.2" stroke="#000" stroke-miterlimit="10" fill="none"/><path d="M93.684 133.438h14v11h-14zm0 0" fill="#fff"/><g fill="#00f"><use xlink:href="#c" x="93.684" y="142.101"/><use xlink:href="#a" x="100.661" y="142.101"/></g><path d="M116.242 148.844l16.36-8.52M132.602 140.324l15.554 9.906M136.488 137.652l12.446 7.926M133.402 121.895l-.8 18.43M148.156 150.23l16.36-8.52M164.516 141.71l17.277 6.454M164.516 141.71l.8-18.43M168.934 140.055l.64-14.743M181.793 148.164l11.48-14.437M193.273 133.727l-10.183-15.375M211.047 128.797l-17.774 4.93M208.105 125.105l-14.214 3.95M183.09 118.352l5.738-7.22" stroke-width="1.2" stroke="#000" stroke-miterlimit="10" fill="none"/><path d="M188.828 111.133l5.738-7.22" stroke-width="1.2" stroke="#00f" stroke-miterlimit="10" fill="none"/><path d="M187.633 119.605l4.594-5.773" stroke-width="1.2" stroke="#000" stroke-miterlimit="10" fill="none"/><path d="M192.227 113.832l4.59-5.773" stroke-width="1.2" stroke="#00f" stroke-miterlimit="10" fill="none"/><path d="M165.316 123.28l17.774-4.928" stroke-width="1.2" stroke="#000" stroke-miterlimit="10" fill="none"/><path d="M194.566 103.914l17.282 6.453" stroke-width="1.2" stroke="#00f" stroke-miterlimit="10" fill="none"/><path d="M191.566 98.414h7v11h-7zm0 0" fill="#fff"/><use xlink:href="#c" x="191.566" y="107.077" fill="#00f"/><path d="M211.848 110.367l-.403 9.215" stroke-width="1.2" stroke="#00f" stroke-miterlimit="10" fill="none"/><path d="M211.445 119.582l-.398 9.215" stroke-width="1.2" stroke="#000" stroke-miterlimit="10" fill="none"/><path d="M204.848 104.867h14v11h-14zm0 0" fill="#fff"/><g fill="#00f"><use xlink:href="#c" x="204.848" y="113.53"/><use xlink:href="#a" x="211.825" y="113.53"/></g><path d="M211.047 128.797l14.433 11.476M225.48 140.273l17.774-4.933M228.422 143.96l14.215-3.944" stroke-width="1.2" stroke="#000" stroke-miterlimit="10" fill="none"/><path d="M224.684 158.7l.398-9.212" stroke-width="1.2" stroke="#f00" stroke-miterlimit="10" fill="none"/><path d="M225.082 149.488l.398-9.215M243.254 135.34l10.184 15.38M253.438 150.72l-11.477 14.436M248.895 149.46l-9.184 11.552M241.96 165.156l4.93 17.774M241.96 165.156l-8.64-3.226" stroke-width="1.2" stroke="#000" stroke-miterlimit="10" fill="none"/><path d="M233.32 161.93l-8.636-3.23" stroke-width="1.2" stroke="#f00" stroke-miterlimit="10" fill="none"/><path d="M246.89 182.93l-6.46 6.578" stroke-width="1.2" stroke="#000" stroke-miterlimit="10" fill="none"/><path d="M240.43 189.508l-6.46 6.578" stroke-width="1.2" stroke="#f00" stroke-miterlimit="10" fill="none"/><path d="M246.348 185.03l8.93 2.306" stroke-width="1.2" stroke="#000" stroke-miterlimit="10" fill="none"/><path d="M255.277 187.336l8.93 2.31" stroke-width="1.2" stroke="#f00" stroke-miterlimit="10" fill="none"/><path d="M247.434 180.828l8.93 2.31" stroke-width="1.2" stroke="#000" stroke-miterlimit="10" fill="none"/><path d="M256.363 183.137l8.93 2.304" stroke-width="1.2" stroke="#f00" stroke-miterlimit="10" fill="none"/><path d="M218.97 190.586h15v11h-15zm0 0" fill="#fff"/><g fill="#f00"><use xlink:href="#a" x="218.969" y="199.249"/><use xlink:href="#b" x="225.983" y="199.249"/></g><path d="M260.75 182.043h8v11h-8zm0 0" fill="#fff"/><use xlink:href="#b" x="260.75" y="190.706" fill="#f00"/><path d="M220.684 153.2h8v11h-8zm0 0" fill="#fff"/><use xlink:href="#b" x="220.684" y="161.862" fill="#f00"/><path d="M165.316 123.28l-15.558-9.905M149.758 113.375l-16.356 8.52M150.13 118.078l-13.087 6.817M83.523 165.883l-16.355 8.52" stroke-width="1.2" stroke="#000" stroke-miterlimit="10" fill="none"/></g></svg>
